X:21
T:Lovely Molly
F:http://www.vwml.org/record/FK/4/23
M:3/4
L:1/4
Z:Transcribed Steve Mansfield March 2016
K:Eb
E | FFF | f2 e/ d/ | c=AB | c2E | 
FFF | f2 e/d/ | c=AB | c2B |
ccc | BB c/d/ | e/d/ c/B/ A/F/ | G>F(E/F/) | 
C>DE/D/ | F2z | (F>E)F/ G/ | A/B/ ce | 
(e>dc/B/) | AFG | F2 |]

